X: 342
%
U:~=!turn!
T: Lord Dalhousie
C:
O:Scotland
B:Keith Norman MacDonald : "The Skye collection of the best reels & strathspeys extant" : 1887
Z:Ralph Palmer
R:Reel
M:C|
L:1/8
K:D
A | {/c}d2 (fd) A/2A/2A fd | egfe {/c}dBBc | {/c}d2 (fd) dgTfe | {/c}dBAF D/2D/2D D :| B | AD[FA]A B2 cd | ABFA BEEB |
ADFA Bc{/c}dA | BdAF D/2D/2D (DB) | ADFA B2 (Bd) | ABFA BEEB | AFGA Bc{/c}de | fdef d/2d/2d [Fd] |]


